packages/ui-icons/svg/Solid/annotate.svg

<svg viewBox="0 0 1920 1920" version="1.1" xmlns="http://www.w3.org/2000/svg">
    <g fill-rule="nonzero" stroke="none" stroke-width="1">
        <path d="M1468.23529,113 L1468.23529,204.142488 L822.674025,862.889857 C806.765611,879.394022 797.938192,901.462569 798.075895,924.385181 L798.07387,1354.24398 C797.833891,1354.60997 797.597478,1354.97963 797.364706,1355.35294 C773.647059,1398.27059 718.305882,1460.38824 684.423529,1457 C650.541176,1453.61176 640.376471,1429.89412 612.141176,1361 C576,1271.77647 517.270588,1154.31765 421.270588,1163.35294 C300.423529,1173.51765 241.694118,1389.23529 221.364706,1484.10588 C214.815258,1515.29373 234.788626,1545.88585 265.976471,1552.43529 C297.164315,1558.98474 327.756435,1539.01137 334.305882,1507.82353 C346.721038,1425.43021 380.174711,1347.63097 431.435294,1281.94118 C431.435294,1281.94118 461.929412,1292.10588 509.364706,1409.56471 C556.8,1527.02353 608.752941,1571.07059 678.776471,1575.58824 L687.811765,1575.58824 C800.752941,1575.58824 884.329412,1432.15294 893.364706,1415.21176 C903.401798,1399.11454 904.36106,1379.92728 897.630818,1363.63712 L1237.32821,1363.63749 C1260.50046,1363.30743 1282.60366,1353.83463 1298.82353,1337.28235 L1468.23529,1164.41022 L1468.23529,1807.11765 L0,1807.11765 L0,113 L1468.23529,113 Z M564.705882,677.705882 L225.882353,677.705882 L225.882353,790.647059 L564.705882,790.647059 L564.705882,677.705882 Z M790.588235,451.823529 L225.882353,451.823529 L225.882353,564.764706 L790.588235,564.764706 L790.588235,451.823529 Z"/>
        <path d="M1903.05882,468.764706 L1677.17647,242.882353 C1666.57318,232.191756 1652.13953,226.178448 1637.08235,226.178448 C1622.02517,226.178448 1607.59153,232.191756 1596.98824,242.882353 L919.341176,920.529412 C909.115192,931.138347 903.440895,945.324088 903.528392,960.058824 L903.528392,1242.41176 L1185.88235,1242.41176 C1200.77756,1242.1996 1214.98557,1236.11045 1225.41176,1225.47059 L1903.05882,547.823529 C1924.58219,525.865308 1924.58219,490.722928 1903.05882,468.764706 Z M1694.11765,597.517647 L1548.42353,451.823529 L1637.64706,362.6 L1783.34118,508.294118 L1694.11765,597.517647 Z"/>
    </g>
</svg>

<svg viewBox="0 0 1920 1920" version="1.1" xmlns="http://www.w3.org/2000/svg">
    <g fill-rule="nonzero" stroke="none" stroke-width="1">
        <path d="M798.076 1354.24c-.24.368-.478.739-.711 1.113-23.718 42.918-79.06 105.035-112.941 101.647-33.883-3.388-44.048-27.106-72.283-96-36.141-89.224-94.87-206.682-190.87-197.647-120.847 10.165-179.577 225.882-199.906 320.753-6.55 31.188 13.424 61.78 44.611 68.33 31.188 6.549 61.78-13.425 68.33-44.612a484.518 484.518 0 0 1 97.13-225.883s30.493 10.165 77.929 127.624c47.435 117.459 99.388 161.506 169.411 166.023h9.036c112.94 0 196.517-143.435 205.553-160.376 10.037-16.097 10.996-35.284 4.266-51.575h339.697a87.85 87.85 0 0 0 61.496-26.355l169.411-172.872v642.708H0V113h1468.235v91.142L822.674 862.89a87.85 87.85 0 0 0-24.598 61.495v429.856zM225.882 677.707v112.941h338.824V677.706H225.882zm0-225.882v112.94h564.706v-112.94H225.882z"/>
        <path d="M1903.059 468.765l-225.883-225.883a56.47 56.47 0 0 0-80.188 0L919.341 920.53a56.476 56.476 0 0 0-15.813 39.53v282.353h282.354a56.47 56.47 0 0 0 39.53-16.941l677.647-677.647c21.523-21.959 21.523-57.101 0-79.06zm-208.941 128.753l-145.694-145.694 89.223-89.224 145.694 145.694-89.223 89.224z"/>
    </g>
</svg>
